X: 20156
T: Joanie's
R: jig
M: 6/8
K: Dmajor
DEF EFG|FAd ~f3|gec Ace|dAG FGE|
DEF EFG|FAd ~f3|gec ABc|1 edc dAF:|2 edc d2g||
|:~f3 ~g3|afd Adf|gec Ace|dAG FAd|
fdf gb^g|afd Adf|gec ABc|1 edc d2g:|2 edc dAF||

